X:1
T:Title
%%score { ( 1 3 ) | ( 2 4 ) }
L:1/8
M:4/4
K:Bb
V:1 treble nm="Grand Piano"
V:3 treble 
V:2 bass 
V:4 bass 
V:1
 z4 z2[Q:1/4=94] [Bd]>[B_d] | [Be]2 [Bd]>[B_d] [B=d]2 [FB]>[F_d] | %2
 [Bd]<[Bd] [Be]2 [Bd]2 [Bd]>[Bd] | [Ac]2 [Bd]>[ce] [eg]2 [df]>[ce] | [Bd]6 [Bd]>[B_d] | %5
 [Be]2 [Bd]>[B_d] [B=d]2 [FB]>[F_d] | [Bd]<[Bd] [Be]2 [Bd]2 [Bd]>[Bd] | %7
 [Bd]2 [Bd]>[Bd] [B=e]2 [Bd]>[Be] |[M:7/8] f-f-f- f- f3 |[M:1/4] f>[Ae] | %10
[M:4/4] [Bd]2 [Bd]2 [Bd]2 [B_d]>[Be] | [Bd]6 [FB]>[Bd] | [Ac]2 [Ac]>[Ac] [Ac]2 [Bd]>[ce] | %13
 [Bd]6 B>[Bc] | [Bd]2 [Bd]>[Bd] [Bd]2 [Bd]>[Bd] | [Be]2 e>e =e2 e>e | %16
 [Af] B2 [Be] [Ad] [Ad]2 [Ac] |[M:3/4] B6 |] %18
V:2
 z4 z2 [B,,F,]>[B,,=E,] | [B,,G,]2 [B,,F,]>[B,,=E,] [B,,F,]2 [B,,D,]>[B,,E,] | %2
 [B,,F,]<[B,,F,] [B,,G,]2 [B,,F,]2 [F,,F,]>[F,,F,] | %3
 [F,,F,]2 [F,,F,]>[F,,F,] [F,,F,]2 [F,,F,]>[F,,F,] | [B,,F,]6 [B,,F,]>[B,,=E,] | %5
 [B,,G,]2 [B,,F,]>[B,,=E,] [B,,F,]2 [B,,D,]>[B,,E,] | %6
 [B,,F,]<[B,,F,] [B,,G,]2 [B,,F,]2 [B,,F,]>[B,,F,] | %7
 [G,,G,]2 [G,,G,]>[G,,G,] [C,G,]2 [C,G,]>[C,B,] |[M:7/8] [A,c]2 z z z z2 | %9
[M:1/4] [F,,A,c]>[F,,F,] |[M:4/4] [B,,F,]2 [B,,F,]2 [B,,F,]2 [B,,=E,]>[B,,G,] | %11
 (3[B,,F,]D,G, (3F,D,B,, F,,2 [B,,D,]>[B,,F,] | [F,,E,]2 [F,,E,]>[F,,E,] [F,,E,]2 [F,,F,]>[F,,F,] | %13
 [B,,F,]>G, F,>D, B,,2 [B,,D,]>[B,,E,] | [B,,F,]2 [B,,F,]>[B,,F,] [_A,,F,]2 [A,,F,]>[A,,F,] | %15
 [G,,E,]2 [G,,B,B]>[G,,B,B] [^F,,B,B]2 [F,,B,B]>[F,,B,B] | %16
 [F,,F,] [F,,D,]2 [F,,G,] [F,,F,] [F,,F,]2 [F,,E,] |[M:3/4] [B,,D,]6 |] %18
V:3
 x8 | x8 | x8 | x8 | x8 | x8 | x8 | x8 |[M:7/8] z2 d2 e3 |[M:1/4] x2 |[M:4/4] x8 | x8 | x8 | x8 | %14
 x8 | x8 | x8 |[M:3/4] x6 |] %18
V:4
 x8 | x8 | x8 | x8 | x8 | x8 | x8 | x8 |[M:7/8] [F,,F,]2- [F,,-F,-B,]2 [F,,F,C]3 |[M:1/4] x2 | %10
[M:4/4] x8 | x8 | x8 | x8 | x8 | x8 | x8 |[M:3/4] x6 |] %18

